X:801
T:Port na Cailliche
R:Strathspey
B:The Athole Collection
M:C
L:1/8
K:E Minor
B|G<E E>e G<E E>G|F<D D>d F<D D>F|G<E E>e G<E E>g|
f<d a>f e/e/e e:|
f|g>be>b g>ee>g|f>da>d f<d d>f|g>be>b g<e e>g|f>da>f e/e/e e>f|
g>be>b g<e e>g|f>da>d f<d d>f|g>ba>f g>ef>d|e>Bd>F E/E/E ~E||

